X:68
T:Strawberry Fair - Masters
C:Taken down from J Masters, Bradstone.
%%VWML:SBG-1-1-314-0
F:http://www.vwml.org/record/SBG/1/1/314
Z:Original Sibleius Transcription by Martin and Shan Graebe
L:1/8
M:2/4
I:linebreak $
K:G
D | G G A D | G G/ G/ A2 | A d A d | B/ c/ B/ A/ G D3/4 D/4 |$ G G A D | G G/ G/ A B/ c/ | d3 B | 
c B A B | c B/ B/ A B | c B A G |$ F/ F/ E !fermata!D2 | G G A d | B/ c/ B/ A/ G D | G G A d | 
B/ G/ A/ F/ !fermata!G2 |] 
T:Strawberry Fair - Harkness
T:From Songs & Madrigals of 15th cent pub. Old English Plain Song & Music Soc. 1891 
L:1/4
M:6/4
I:linebreak $
K:C
G2 B c2 A | G c2 B2 B | A G2 A2 F | G2 z z2 G | F2 G A2 F |$ G2 A B2 G | d2 B A d2 | G2 c B2 G | 
c2 d f e2 |[M:4/4] A c c d | z2 d d |$ c B c A | G3 G |[M:6/4] G2 G c2 d | f e2 A c2 | 
[M:4/4] d2 z d | d c B c |$ A B G3/2 G/ | G4"^Fine" || G3 A | B2 B2 | c2 G2 | A2 A2 | F2 F2 | 
G2 F2 | G4 |$ z2 c2 | c3 G | c2 B2 | A2 A2 | e2 d2 |$ d2 c2 | B G (G F/G/ | 
A/G/F/E/"^Da capo al Segno" F2 | G4) |] 

